public/images/icons/open-logo.svg

<svg width="61" height="24" viewBox="0 0 61 24" fill="none" xmlns="http://www.w3.org/2000/svg">
<path d="M15.7747 3.15839C14.9422 2.33259 13.9665 1.68631 12.8492 1.21956C11.7303 0.752801 10.5155 0.520142 9.20475 0.520142C7.894 0.520142 6.6792 0.752801 5.56034 1.21956C4.44148 1.68631 3.46728 2.33259 2.63478 3.15839C1.80375 3.98419 1.15576 4.9536 0.693751 6.0652C0.230266 7.17823 0 8.38031 0 9.67286C0 10.9654 0.230266 12.1718 0.693751 13.292C1.15576 14.4122 1.80375 15.3903 2.63625 16.2247C3.46875 17.0591 4.44296 17.7082 5.56182 18.175C6.68067 18.6418 7.89547 18.8744 9.20622 18.8744C10.517 18.8744 11.7318 18.6418 12.8506 18.175C13.968 17.7082 14.9437 17.0591 15.7762 16.2247C16.6087 15.3903 17.2552 14.4137 17.7172 13.292C18.1792 12.1718 18.411 10.9654 18.411 9.67286C18.411 8.38031 18.1792 7.17823 17.7172 6.06664C17.2537 4.9536 16.6072 3.98419 15.7747 3.15839ZM15.0928 12.3097C14.799 13.1355 14.3695 13.8593 13.8071 14.4812C13.2433 15.103 12.5746 15.5856 11.8026 15.9288C11.0292 16.2721 10.1627 16.4444 9.20475 16.4444C8.24678 16.4444 7.38033 16.2721 6.60687 15.9288C5.83341 15.5856 5.16475 15.103 4.60237 14.4812C4.03852 13.8593 3.61046 13.1355 3.31672 12.3097C3.02298 11.4839 2.87538 10.6049 2.87538 9.67143C2.87538 8.73935 3.02298 7.86472 3.31672 7.0461C3.61046 6.22892 4.03852 5.51227 4.60237 4.89903C5.16475 4.28578 5.83341 3.80754 6.60687 3.46429C7.38033 3.12105 8.24678 2.94871 9.20475 2.94871C10.1627 2.94871 11.0292 3.12105 11.8026 3.46429C12.5761 3.80754 13.2433 4.28578 13.8071 4.89903C14.3695 5.51227 14.799 6.22892 15.0928 7.0461C15.3865 7.86472 15.5341 8.73935 15.5341 9.67143C15.5341 10.6049 15.388 11.4839 15.0928 12.3097Z" fill="#718096"/>
<path d="M30.4512 6.12696C29.5685 5.54674 28.5309 5.2552 27.3367 5.2552C26.395 5.2552 25.53 5.48499 24.7403 5.94169C23.9506 6.39983 23.3189 7.0461 22.848 7.88052V5.50078H20.4775V23.2404H23.0252V16.2965C23.5123 17.0821 24.1263 17.6867 24.8658 18.1118C25.6053 18.5369 26.429 18.7495 27.3367 18.7495C28.5309 18.7495 29.5685 18.4594 30.4512 17.8791C31.3339 17.2989 32.0188 16.5004 32.5059 15.4865C32.993 14.4725 33.2366 13.3107 33.2366 12.0023C33.2366 10.694 32.993 9.53212 32.5059 8.51818C32.0188 7.50568 31.3339 6.70717 30.4512 6.12696ZM29.5184 15.3658C28.8039 16.1514 27.9006 16.5435 26.8068 16.5435C26.1013 16.5435 25.4621 16.364 24.8909 16.0035C24.3197 15.6445 23.865 15.1246 23.5285 14.4453C23.1919 13.766 23.0237 12.9531 23.0237 12.0038C23.0237 11.0229 23.1919 10.1971 23.5285 9.52494C23.865 8.85425 24.3182 8.33866 24.8909 7.97962C25.4621 7.62057 26.1013 7.43962 26.8068 7.43962C27.8991 7.43962 28.8039 7.836 29.5184 8.6302C30.2328 9.42441 30.59 10.5489 30.59 12.0038C30.59 13.46 30.2328 14.5803 29.5184 15.3658Z" fill="#718096"/>
<path d="M45.9854 7.35345C45.4215 6.69137 44.741 6.17579 43.9425 5.80813C43.1439 5.44047 42.2406 5.2552 41.2324 5.2552C40.0058 5.2552 38.912 5.54531 37.9541 6.12696C36.9961 6.70717 36.2389 7.49706 35.6839 8.4952C35.1289 9.49334 34.8514 10.638 34.8514 11.9305C34.8514 13.2877 35.12 14.4826 35.6588 15.5123C36.1976 16.5435 36.9489 17.3406 37.9157 17.905C38.8825 18.4694 40.0132 18.7509 41.3077 18.7509C42.8886 18.7509 44.22 18.3387 45.3049 17.5115C46.3898 16.6857 47.0909 15.5525 47.4112 14.1135H44.8886C44.6864 14.9637 44.2702 15.6272 43.6399 16.1012C43.0096 16.5765 42.2155 16.8135 41.2575 16.8135C40.4501 16.8135 39.7608 16.6168 39.1895 16.2247C38.6183 15.8312 38.1814 15.2725 37.8788 14.5429C37.6471 13.9857 37.5054 13.3423 37.4522 12.617H47.4127C47.5293 11.5542 47.4629 10.5762 47.2105 9.68435C46.9566 8.79393 46.5477 8.01696 45.9854 7.35345ZM37.4817 10.9726C37.5511 10.3637 37.6825 9.81504 37.8891 9.34111C38.2006 8.6302 38.6375 8.08158 39.2014 7.69669C39.7637 7.3118 40.425 7.12079 41.1808 7.12079C42.2229 7.12079 43.0598 7.45972 43.6901 8.13903C44.3203 8.81834 44.6613 9.76334 44.7115 10.9726H37.4817Z" fill="#718096"/>
<path d="M50.8933 5.4893L49.6165 6.73158V18.5053H52.1642V7.79579H58.2662V18.5053H60.8139V6.72871L59.5401 5.4893H50.8933Z" fill="#718096"/>
</svg>

<svg xmlns="http://www.w3.org/2000/svg" width="61" height="24" fill="none" viewBox="0 0 61 24"><path fill="#718096" d="M15.775 3.158a9.077 9.077 0 0 0-2.926-1.938C11.73.753 10.515.52 9.205.52c-1.311 0-2.526.233-3.645.7a9.06 9.06 0 0 0-2.925 1.938A8.833 8.833 0 0 0 .694 6.065C.23 7.178 0 8.38 0 9.673c0 1.292.23 2.499.694 3.619a8.925 8.925 0 0 0 1.942 2.933 8.954 8.954 0 0 0 2.926 1.95c1.119.467 2.333.7 3.644.7s2.526-.233 3.645-.7a8.97 8.97 0 0 0 2.925-1.95 8.905 8.905 0 0 0 1.941-2.933c.462-1.12.694-2.327.694-3.62 0-1.292-.232-2.494-.694-3.605a8.829 8.829 0 0 0-1.942-2.909zm-.682 9.152a6.399 6.399 0 0 1-1.286 2.171 5.925 5.925 0 0 1-2.004 1.448c-.774.343-1.64.515-2.598.515s-1.825-.172-2.598-.515a5.897 5.897 0 0 1-2.005-1.448 6.374 6.374 0 0 1-1.285-2.171 7.813 7.813 0 0 1-.442-2.639c0-.932.148-1.806.442-2.625A6.266 6.266 0 0 1 4.602 4.9a5.98 5.98 0 0 1 2.005-1.435c.773-.343 1.64-.515 2.598-.515s1.824.172 2.598.515c.773.344 1.44.822 2.004 1.435a6.29 6.29 0 0 1 1.286 2.147c.293.819.441 1.693.441 2.625 0 .934-.146 1.813-.441 2.639zM30.451 6.127c-.883-.58-1.92-.872-3.114-.872-.942 0-1.807.23-2.597.687a5.075 5.075 0 0 0-1.892 1.939V5.5h-2.37v17.74h2.547v-6.944c.487.785 1.101 1.39 1.84 1.815.74.425 1.564.638 2.472.638 1.194 0 2.232-.29 3.114-.87.883-.581 1.568-1.38 2.055-2.393.487-1.014.73-2.176.73-3.485 0-1.308-.243-2.47-.73-3.484-.487-1.012-1.172-1.81-2.055-2.391zm-.933 9.239c-.714.785-1.617 1.178-2.711 1.178-.706 0-1.345-.18-1.916-.54-.571-.36-1.026-.88-1.362-1.559-.337-.679-.505-1.492-.505-2.441 0-.981.168-1.807.505-2.48.336-.67.79-1.185 1.362-1.544a3.528 3.528 0 0 1 1.916-.54c1.092 0 1.997.396 2.711 1.19.715.794 1.072 1.919 1.072 3.374 0 1.456-.357 2.576-1.072 3.362zM45.985 7.353a5.882 5.882 0 0 0-2.042-1.545c-.8-.368-1.702-.553-2.71-.553-1.227 0-2.321.29-3.279.872a6.292 6.292 0 0 0-2.27 2.368c-.555.998-.833 2.143-.833 3.436 0 1.357.269 2.552.808 3.581.539 1.032 1.29 1.829 2.257 2.393.967.564 2.097.846 3.392.846 1.58 0 2.912-.412 3.997-1.24 1.085-.825 1.786-1.958 2.106-3.397H44.89c-.203.85-.619 1.513-1.25 1.987-.63.476-1.424.713-2.382.713-.807 0-1.496-.197-2.067-.59-.572-.393-1.009-.951-1.311-1.681-.232-.557-.374-1.2-.427-1.926h9.96c.117-1.063.05-2.04-.201-2.933a6.175 6.175 0 0 0-1.226-2.33zm-8.503 3.62c.07-.61.2-1.158.407-1.632.312-.71.748-1.26 1.312-1.644.563-.385 1.224-.576 1.98-.576 1.042 0 1.879.339 2.51 1.018.63.68.97 1.624 1.02 2.834h-7.23zM50.893 5.49l-1.276 1.242v11.773h2.547V7.795h6.102v10.71h2.548V6.73l-1.274-1.24h-8.647z"/></svg>
